X:1
T:Animam meam dilectam - Victoria
T:#
%%score [ 1 2 3 4 ]
L:1/8
Q:1/4=200
M:none
K:F
V:1 treble nm="Soprano" snm="S"
V:2 treble nm="Alto" snm="A"
V:3 treble-8 nm="Tenor" snm="T"
V:4 bass nm="Bass" snm="B"
V:1
"^Animam meam dilectam""^Tomas Luis de Victoria\n(1548- 1611)" z8 B8- | B4 B4 B8 | d8 c4 A4 | %3
w: A\-|* ni- mam|me- am di-|
 (B2 c2 d8 c4) | d8 B8- | B4 A4 A4 B4 | B4 c4 d8 |[M:4/2] d4 (d8 ^c4) | d16 | z16 | z16 | z16 | %12
w: le\- * * *|ctam tra\-|* di- di in|ma- nus i-|ni- quo\- *|rum,||||
 z8 z4 A4 | B4 c4 d4 d4- | (d4 ^c4) d8 | z16 | z16 | z16 | z16 | z4 d8 c4 | A4 B4 A8 | d16 | =B16 | %23
w: hae-|re- di- tas me\-|* * a,|||||de- dit|con- tra me|vo-|ces:|
 z16 | z16 | z8 z4 d4 | d4 d6 d2 d4 | z4 d4 B2 c2 d4 | d16 | z16 | z16 | z4 d4 d4 d4- | d4 d4 ^c8 | %33
w: ||Con-|gre- ga- mi- ni,|et pro- pe- ra-|te;|||po- su- e\-|* runt me|
 z16 | z16 | z4 d4 _e8 | d8 B8 | c8 d8 | z4 (d6 c2 B4) | A4 (G8 ^F4) | G16 || d8 d4 d4 | %42
w: ||et lu-|xit su-|per me|o\- * *|mnis ter\- *|ra:|Qui- a non|
 (f6 e2 d4) c4 | (d4 _e6 d2 d4- | d4 c4) d8 | z4 d8 c4- | c4 B8 A4- | A4 G4 ^F8 | z4 G4 c6 c2 | %49
w: est * * in-|ven\- * * *|* * tus|qui me|* a- gno\-|* sce- ret,|et fa- ce-|
 B4 (A6 G2 G4- | G4 ^F4) G4 d4 | f4 f8 _e4 | d16 | d16 || z16 | z16 | z16 | z16 | z16 | %59
w: ret be\- * *|* * ne, et|fa- ce- ret|be-|ne.||||||
[M:4/2] z16 | z16 | z16 | z16 | z16 | z16 |[M:4/2] z16 | z16 ||"^Tutti" d8 d4 d4 | (f6 e2 d4) c4 | %69
w: ||||||||Qui- a non|est * * in|
 (d4 _e6 d2 d4- | d4 c4) d8 | z4 d8 c4- | c4 B8 A4- | A4 G4 ^F8 | z4 G4 c6 c2 | %75
w: ven\- * * *|* * tus|qui me|* a- gnos\-|* ce- ret|et fa- ce-|
 B4[Q:1/4=198] (A6[Q:1/4=196] G2[Q:1/4=194] G4- | %76
w: ret be\- * *|
[Q:1/4=192] G4[Q:1/4=190] ^F4)[Q:1/4=188] G4[Q:1/4=186] d4 | %77
w: * * ne, et|
[Q:1/4=184] f4[Q:1/4=181] f8[Q:1/4=178] _e4 |[Q:1/4=173] d16 |[Q:1/4=170] d16 |] %80
w: fa- ce- ret|be-|ne.|
V:2
 z8 G8- | G4 G4 G8 | (F4 G8 ^F4) | G4 D4 G8 | ^F8 G8- | G4 ^F4 F4 G4 | G4 A4 B8- | %7
w: A\-|* ni- mam|me\- * *|am di- le-|ctam tra\-|* di- di in|ma- nus i\-|
[M:4/2] B4 B4 A8 | ^F4 A4 B8 | A4 G4 (A6 G2 | F4 D4) E8 | z4 D4 E4 F4 | G8 (F8- | F4 E4) D8 | %14
w: * ni- quo-|rum, et fac-|ta est mi\- *|* * hi|hae- re- di-|tas me\-|* * a|
 z4 A8 A4 | ^F8 G4 D4 | (E2 F2 G2 E2 F2 G2 A2 F2 | G2 F2 F2 ED E8) | D8 z8 | z4 D4 E8 | %20
w: si- cut|le- o in|sil\- * * * * * * *||va:|de- dit|
 F4 G4 A4 (A4- | A2 D2 G8 ^F4) | G8 z8 | z16 | z16 | z4 A4 A4 A4- | A2 A2 A4 D4 A2 A2 | %27
w: con- tra me vo\-||ces:|||Con- gre- ga\-|* mi- ni et pro- pe-|
 B4 A4 z4 A4 | B2 A2 B4 A8- | A8 z8 | z16 | z4 A4 B4 B4- | B4 B4 A8- | A16 | z16 | z8 z4 G4 | %36
w: ra- te, et|pro- pe- ra- te;|||po- su- e\-|* runt me|||et|
 B4 A4 (G2 A2 B4- | B4) A4 B4 B,4- | (B,2 A,2 B,2 C2 D8) | _E8 D8 | D16 || z8 A8 | %42
w: lu- xit su\- * *|* per me o\-||mnis ter-|ra:|Qui-|
 A4 A4 (D2 E2 F2 G2 | A2 B2 c2 A2 B4) B4 | G8 A8 | B8 A8 | G8 F8 | _E8 D4 A4 | B6 B2 A4 (G4- | %49
w: a non est * * *|* * * * * in-|ven- tus|qui me|a- gno-|sce- ret, et|fa- ce- ret be\-|
 G4 ^F4 G8) | A4 A4 B8- | B4 A4 G4 G4- | (G4 ^F2 E2 F8) | G16 ||"^Trio" D8 D4 D4 | G8 A4 =B4 | %56
w: |ne, et fa\-|* ce- ret be\-||ne.|In- sur- re-|xe- runt in|
 c8 _B8 | A8 z8 | z4 G4 G4 ^F4 | G4 D4 F4 E4 | D8 z4 D4- | D4 G4 F4 E4 | (D2 G,2 D4) ^C8 | %63
w: me vi-|ri|abs- que mi-|se- ri- cor- di-|a, et|* non pe- per-|ce\- * * runt|
 z4 D4 D4 ^C4 | D8 E4 A4 | A4 F4 (A4 B4 | A8) G8 || z8 A8 | A4 A4 (D2 E2 F2 G2 | %69
w: a- ni- mae|me- ae, a-|ni- mae me\- *|* ae.|Qui-|a non est * * *|
 A2 B2 c2 A2 B4) B4 | G8 A8 | B8 A8 | G8 F8 | _E8 D4 A4 | B6 B2 A4 (G4- | G4 ^F4 G8) | A4 A4 B8- | %77
w: * * * * * in|ven- tus|qui me|a- gnos-|ce- ret et|fa- ce- ret be\-||ne, et fa\-|
 B4 A4 G4 (G4- | G4 ^F2 E2 F8) | G16 |] %80
w: * ce- ret be\-||ne.|
V:3
 d12 d4 | d8 _e8 | d4 G4 (c4 d4- | d2 c2 B2 A2 G8) | A4 d8 d4 | d8 z4 d4 | d4 f4 f8 | %7
w: A- ni-|mam me-|am di- le\- *||ctam tra- di-|di in|ma- nus i-|
[M:4/2][K:treble-8] g8 e8 | d8 z4 d4 | f4 e4 f4 (e4- | e2 d2 d8 ^c4) | d8 z8 | z8 z4 f4 | %13
w: ni- quo-|rum, et|fac- ta est mi\-||hi|hae-|
 d4 e4 f8 | e8 d8 | z16 | z16 | z16 | z4 d4 e8 | ^f4 g4 a4 a4- | (a2 d2 g8 ^f2 e2 | ^f4 g4 a4 d4) | %22
w: re- di- tas|me- a||||de- dit|con- tra me vo\-|||
 d8 g8- | g4 f4 d4 e4 | f8 e8 | d8 z4 f4 | f4 f6 f2 f4 | d4 ^f2 f2 g4 f2 d2 | g2 ^f2 g4 d4 =f4 | %29
w: ces ad\-|* ver- sa- ri-|us, di-|cens: Con-|gre- ga- mi- ni|et pro- pe- ra- te, et|pro- pe- ra- te ad|
 f6 e2 d4 c4 | (_e2 d2 d8 c4) | d4 f4 f4 f4- | f4 g4 e8 | f6 f2 f4 e4 | d4 c4 B4 A4 | G4 g4 g8- | %36
w: de- vo- ran- dum|il\- * * *|lum; po- su- e\-|* runt me|in de- ser- to|so- li- tu- di-|nis, et lu\-|
 g4 ^f4 (g6 =f2 | _e4) e4 f4 d4- | (d2 c2 B2 A2) B8 | (c8 A8) | G16 || z8 d8 | d4 d4 (f6 e2 | %43
w: * xit su\- *|* per me o\-|* * * * mnis|ter\- *|ra:|Qui-|a non est *|
 d4) c4 (g6 f2 | _e8) d8 | g8 f8 | _e8 d8 | c8 d4 d4 | g8 f4 c4 | (d8 _e8) | d8 z4 B4 | c8 c4 c4 | %52
w: * in ven\- *|* tus|qui me|a- gno-|sce- ret, et|fa- ce- ret|be\- *|ne, et|fa- ce- ret|
 A16 | G16 || z8 G8 | G4 G4 d8 | e4 f4 g4 (d4- | d2 e2 f4) e8 | z16 | z4 d4 d4 ^c4 | d4 G4 B4 A4 | %61
w: be-|ne.|In-|sur- re- xe-|runt in me vi\-|* * * ri||abs- que mi-|se- ri- cor- di-|
 G4 d8 ^c4 | d8 e8 | f8 e8 | z4 d4 d4 ^c4 | (d6 e2 f4 g4- | g4 ^f4) g8 || z8 d8 | d4 d4 (f6 e2 | %69
w: a, et non|pe- per-|ce- runt|a- ni- mae|me\- * * *|* * ae.|Qui-|a non est *|
 d4) c4 (g6 f2 | _e8) d8 | g8 f8 | _e8 d8 | c8 d4 d4 | g8 f4 c4 | d8 _e8 | d8 z4 B4 | c8 c4 c4 | %78
w: * in ven\- *|* tus|qui me|a- gnos-|ce- ret et|fa- ce- ret|be\- *|ne, et|fa- ce- ret|
 A16 | G16 |] %80
w: be-|ne.|
V:4
 z8 G,8- | G,4 G,4 G,8 | B,8 A,4 D,4 | (G,6 F,2 _E,8) | D,8 G,8- | G,4 D,4 D,4 G,4 | G,4 F,4 B,8 | %7
w: A\-|* ni- mam|me- am di-|le\- * *|ctam tra\-|* di- di in|ma- nus i-|
[M:4/2] G,8 A,8 | D,8 z8 | z8 z4 A,4 | B,8 A,4 A,4 | B,8 A,4 A,4 | B,4 C4 D4 (D4- | %13
w: ni- quo-|rum,|et|fac- ta est|mi- hi hae-|re- di- tas me\-|
 D4 C4 B,6 A,2) | (G,4 A,4) D,4 D4- | D4 D4 =B,8 | C4 G,4 (A,2 B,2 C2 A,2 | B,2 C2 D8 ^C4) | %18
w: |* * a si\-|* cut le-|o in sil\- * * *||
 D4 D8 C4 | A,4 B,4 A,8 | D16- | D16 | G,8 z4 G,4 | A,8 B,4 C4 | D4 (D8 ^C4) | D8 z4 D4 | %26
w: va: de- dit|con- tra me|vo\-||ces ad-|ver- sa- ri-|us, di\- *|cens: Con-|
 D4 D6 D2 D4 | G,4 D2 D2 _E4 D4 | z8 z4 D4 | D6 C2 B,4 A,4 | (G,6 F,2 _E,8) | D,4 D4 B,4 B,4- | %32
w: gre- ga- mi- ni,|et pro- pe- ra- te|ad|de- vo- ran- dum|il\- * *|lum; po- su- e\-|
 B,4 G,4 A,8 | D6 D2 D4 C4 | B,4 A,4 G,4 ^F,4 | G,4 G,4 C8 | D8 _E8 | C8 B,8 | G,16 | C,8 D,8 | %40
w: * runt me|in de- ser- to|so- li- tu- di-|nis, et lu-|xit su-|per me|o-|mnis ter-|
 G,16 || z16 | z16 | z16 | z16 | z16 | z16 | z16 | z16 | z16 | z4 D,4 G,8 | F,8 C,8 | D,16 | %53
w: ra:||||||||||et fa-|ce- ret|be-|
 G,16 || z16 | z16 | z16 | z4 D4 D4 ^C4 | D4 G,4 B,4 A,4 | G,8 z8 | z4 G,8 ^F,4 | G,8 A,8 | %62
w: ne.||||Abs- que mi-|se- ri- cor- di-|a,|et non|pe- per-|
 B,8 A,4 A,4 | A,4 F,4 (G,4 A,4) | D,8 z8 | z4 D4 D4 B,4 | (C4 D4) G,8 || z16 | z16 | z16 | z16 | %71
w: ce- runt a-|ni- mae me\- *|ae,|a- ni- mae|me\- * ae.|||||
 z16 | z16 | z16 | z16 | z16 | z4 D,4 G,8 | F,8 C,8 | D,16 | G,16 |] %80
w: |||||et fa-|ce- ret|be-|ne.|

